X: 1
T: The Tide Coming In
C: James Hill
M: 4/4
L: 1/8
R: hornpipe
S: William Hall Lister Ms. (1840-1860)
K: Gmin
dc|BAG^F GABc|d2G2 G2bg|fedc BcdB|(3cdB (3ABG F2dc|
BAG^F GABc|dg^fa g2g=f|edcB cdAc|B2G2 G2:|
|:ga|bgdB gdBG|DGBd gabg|afcA fcAF|CFAc fcAc|
BAG^F GABc|dg^fa gfgd|edcB cdAc|B2G2 G2:|
